X: 25131
T: Máirseáil Alasdruim
R: jig
M: 6/8
K: Gmajor
|:c|BBG AGF|.Gz {a}g ufdc|{c}BAG {c}AGF|{A}Gz.g.f d2 c|
B3 uAGF|{A}.Gz {a}g ufdc|{c}BAB {d}cBc|.dz.g.f d2:|
|:c|Af.f Ag.g|auge {a}fdc|Aff Aggz|augf d2 c|
Aff agg|buag ufde|{a}fef {a}gfg|augf d2:|

